resources/images/menu_support_blocker.svg

<svg width="16" height="16" viewBox="0 0 16 16" fill="none" xmlns="http://www.w3.org/2000/svg">
<path d="M2.5 4.5V6.5M4.5 4.5V7.5M6.5 4.5V6.5M2.5 12.5V14.5M6.5 12.5V14.5M4.5 11.5V14.5M8.5 7.5V11.5M0.5 7.5V11.5" stroke="#FF7C3F" stroke-linecap="square" stroke-linejoin="round"/>
<path d="M0.5 3.5H11.5V12.5V13.5V14.5H14.5V0.5H0.5V3.5Z" stroke="#949494" stroke-linecap="round" stroke-linejoin="round"/>
<path d="M1 5H0V4H1V5ZM3 9H2V10H3V9ZM7 9H6V10H7V9ZM9 14H8V15H9V14ZM1 14H0V15H1V14ZM9 4H8V5H9V4Z" fill="#FF7C3F"/>
</svg>

<svg xmlns="http://www.w3.org/2000/svg" width="16" height="16" viewBox="0 0 16 16"><path d="M2.5,4.5v2m2-2v3m2-3v2m-4,6v2m4-2v2m-2-3v3m4-7v4m-8-4v4" style="fill:none;stroke:#009688;stroke-linecap:square;stroke-linejoin:round"/><polygon points="0.5 3.5 11.5 3.5 11.5 12.5 11.5 13.5 11.5 14.5 14.5 14.5 14.5 0.5 0.5 0.5 0.5 3.5" style="fill:none;stroke:#949494;stroke-linecap:round;stroke-linejoin:round"/><path d="M1,5H0V4H1ZM3,9H2v1H3ZM7,9H6v1H7Zm2,5H8v1H9ZM1,14H0v1H1ZM9,4H8V5H9Z" style="fill:#009688"/></svg>
